N5 (File Name = 1 on Monday, December 27, 2021)
N10 (Default Mill Post)
N15  G91.1
N20 G0  Z60.0000 
N25 M3 
N30  X-10.0000  Y0.0000 
N35  Z0.1000 
N40 G1  Z0.0000  F60.00 
N45 G2  X10.0000  Y0.0000  I10.0000  J-0.0000 
N50  X-10.0000  Y0.0000  I-10.0000  J0.0000 
N55 G0  Z60.0000 
N60  X-13.7901  Y0.0000 
N65  Z0.1000 
N70 G1  Z0.0000  
N75 G2  X13.7901  Y0.0000  I13.7901  J-0.0000 
N80  X-13.7901  Y0.0000  I-13.7901  J0.0000 
N85 G0  Z60.0000 
N90  X-16.6570  Y0.2051 
N95  Z0.1000 
N100 G1  Z0.0000  
N105  Y17.5675   
N110  X18.0677   
N115  Y-17.1572   
N120  X-16.6570   
N125  Y0.2051   
N130 G0  Z60.0000 
N135 M5
N140 M30

